packages/foundations/assets/icons/functional/images/technology/database_24.svg

<svg width="24" height="24" viewBox="0 0 24 24" fill="none" xmlns="http://www.w3.org/2000/svg">
<g clip-path="url(#clip0_187_580)">
<path fill-rule="evenodd" clip-rule="evenodd" d="M19.5 2C20.8255 2 21.9914 3.05156 22 4.5V7.5C22 8.06324 21.8137 8.58298 21.4995 9.00097C21.7747 9.36576 22 9.87561 22 10.5V13.5C22 14.0632 21.8137 14.583 21.4995 15.001C21.7747 15.3658 22 15.875 22 16.5V19.5C22 20.8255 20.9418 22 19.5 22H4.5C3.17452 22 2.00862 20.9412 2 19.5V16.5C2 15.9372 2.18596 15.4179 2.49978 15C2.22545 14.6351 2 14.0969 2 13.5V10.5C2 9.93722 2.18596 9.41787 2.49978 9.00004C2.22545 8.63511 2 8.10837 2 7.5V4.5C2 3.17452 3.07075 2 4.5 2H19.5ZM19.5 16H4.5C4.25454 16 4 16.19 4 16.5V19.5C4 19.7455 4.20639 20 4.5 20H19.5C19.7455 20 20 19.7908 20 19.5V16.5C20 16.2239 19.7761 16 19.5 16ZM6 17C6.55228 17 7 17.4477 7 18C7 18.5523 6.55228 19 6 19C5.44772 19 5 18.5523 5 18C5 17.4477 5.44772 17 6 17ZM19.5 10H4.5C4.25454 10 4.00806 10.1933 4 10.5V13.5C4 13.7455 4.2085 14 4.5 14H19.5C19.7455 14 20 13.7931 20 13.5V10.5C20 10.2239 19.7761 10 19.5 10ZM6 11C6.55228 11 7 11.4477 7 12C7 12.5523 6.55228 13 6 13C5.44772 13 5 12.5523 5 12C5 11.4477 5.44772 11 6 11ZM19.5 4H4.5C4.25454 4 4.00806 4.1963 4 4.5V7.5C4 7.74546 4.21811 8 4.5 8H19.5C19.7455 8 20 7.7965 20 7.5V4.5C20 4.22386 19.7761 4 19.5 4ZM6 5C6.55228 5 7 5.44772 7 6C7 6.55228 6.55228 7 6 7C5.44772 7 5 6.55228 5 6C5 5.44772 5.44772 5 6 5Z" fill="#1A1C1F"/>
</g>
<defs>
<clipPath id="clip0_187_580">
<rect width="24" height="24" fill="white"/>
</clipPath>
</defs>
</svg>

<svg xmlns="http://www.w3.org/2000/svg" width="24" height="24" fill="none"><g clip-path="url(#a)"><path fill="#1A1C1F" fill-rule="evenodd" d="M19.5 2A2.497 2.497 0 0 1 22 4.5v3a2.5 2.5 0 0 1-.5 1.501c.275.365.5.875.5 1.499v3a2.5 2.5 0 0 1-.5 1.501c.275.365.5.874.5 1.499v3c0 1.326-1.058 2.5-2.5 2.5h-15A2.5 2.5 0 0 1 2 19.5v-3c0-.563.186-1.082.5-1.5a2.55 2.55 0 0 1-.5-1.5v-3c0-.563.186-1.082.5-1.5A2.52 2.52 0 0 1 2 7.5v-3C2 3.175 3.07 2 4.5 2zm0 14h-15c-.245 0-.5.19-.5.5v3c0 .245.206.5.5.5h15c.245 0 .5-.21.5-.5v-3a.5.5 0 0 0-.5-.5M6 17a1 1 0 1 1 0 2 1 1 0 0 1 0-2m13.5-7h-15a.504.504 0 0 0-.5.5v3c0 .245.208.5.5.5h15c.245 0 .5-.207.5-.5v-3a.5.5 0 0 0-.5-.5M6 11a1 1 0 1 1 0 2 1 1 0 0 1 0-2m13.5-7h-15a.507.507 0 0 0-.5.5v3c0 .245.218.5.5.5h15c.245 0 .5-.203.5-.5v-3a.5.5 0 0 0-.5-.5M6 5a1 1 0 1 1 0 2 1 1 0 0 1 0-2" clip-rule="evenodd"/></g><defs><clipPath id="a"><path fill="#fff" d="M0 0h24v24H0z"/></clipPath></defs></svg>
